static/sponsors/cl.svg

<?xml version="1.0" encoding="UTF-8"?>
<svg xmlns="http://www.w3.org/2000/svg" xmlns:xlink="http://www.w3.org/1999/xlink" width="491.03pt" height="200.63pt" viewBox="0 0 491.03 200.63" version="1.1">
<g id="surface1">
<path style=" stroke:none;fill-rule:nonzero;fill:rgb(92.939758%,10.978699%,14.118958%);fill-opacity:1;" d="M 92.242188 40.121094 L 40.121094 70.21875 L 92.242188 100.316406 L 144.367188 70.21875 L 92.242188 40.121094 "/>
<path style=" stroke:none;fill-rule:nonzero;fill:rgb(30.917358%,29.660034%,29.972839%);fill-opacity:1;" d="M 40.117188 130.410156 L 92.246094 160.5 L 92.242188 100.316406 Z M 40.117188 130.410156 "/>
<path style=" stroke:none;fill-rule:nonzero;fill:rgb(54.336548%,53.50647%,53.712463%);fill-opacity:1;" d="M 92.242188 100.316406 L 92.246094 160.5 L 144.367188 130.410156 L 92.242188 100.316406 "/>
<path style=" stroke:none;fill-rule:nonzero;fill:rgb(54.336548%,53.50647%,53.712463%);fill-opacity:1;" d="M 92.242188 100.316406 L 40.121094 70.21875 L 40.117188 130.410156 L 92.242188 100.316406 "/>
<path style=" stroke:none;fill-rule:nonzero;fill:rgb(92.939758%,10.978699%,14.118958%);fill-opacity:1;" d="M 287.253906 125.824219 C 286.796875 121.355469 284.160156 117.855469 279.570312 117.855469 C 275.328125 117.855469 272.347656 121.121094 271.71875 125.824219 Z M 264.839844 128.0625 L 264.839844 127.945312 C 264.839844 119.289062 270.972656 112.179688 279.628906 112.179688 C 289.261719 112.179688 294.132812 119.746094 294.132812 128.460938 C 294.132812 129.09375 294.074219 129.722656 294.019531 130.410156 L 271.777344 130.410156 C 272.523438 135.339844 276.019531 138.09375 280.488281 138.09375 C 283.871094 138.09375 286.28125 136.828125 288.6875 134.480469 L 292.757812 138.09375 C 289.890625 141.53125 285.933594 143.769531 280.375 143.769531 C 271.601562 143.769531 264.839844 137.40625 264.839844 128.0625 Z M 242.425781 112.808594 L 249.363281 112.808594 L 249.363281 119.632812 C 251.253906 115.105469 254.75 112.007812 260.082031 112.238281 L 260.082031 119.574219 L 259.683594 119.574219 C 253.605469 119.574219 249.363281 123.53125 249.363281 131.558594 L 249.363281 143.082031 L 242.425781 143.082031 Z M 229.011719 128.117188 L 229.011719 128.003906 C 229.011719 122.671875 225.171875 118.257812 219.726562 118.257812 C 214.164062 118.257812 210.613281 122.613281 210.613281 127.886719 L 210.613281 128.003906 C 210.613281 133.277344 214.449219 137.691406 219.839844 137.691406 C 225.457031 137.691406 229.011719 133.332031 229.011719 128.117188 Z M 203.675781 128.117188 L 203.675781 128.003906 C 203.675781 119.347656 210.554688 112.179688 219.839844 112.179688 C 229.128906 112.179688 235.949219 119.230469 235.949219 127.886719 L 235.949219 128.003906 C 235.949219 136.601562 229.070312 143.769531 219.726562 143.769531 C 210.496094 143.769531 203.675781 136.71875 203.675781 128.117188 Z M 162.914062 123.128906 L 162.914062 123.015625 C 162.914062 111.605469 171.457031 102.261719 183.613281 102.261719 C 191.007812 102.261719 195.476562 104.84375 199.320312 108.511719 L 194.789062 113.730469 C 191.582031 110.746094 188.140625 108.742188 183.554688 108.742188 C 175.929688 108.742188 170.3125 115.046875 170.3125 122.902344 L 170.3125 123.015625 C 170.3125 130.867188 175.871094 137.230469 183.554688 137.230469 C 188.484375 137.230469 191.636719 135.28125 195.074219 132.074219 L 199.605469 136.660156 C 195.421875 141.015625 190.835938 143.769531 183.324219 143.769531 C 171.628906 143.769531 162.914062 134.652344 162.914062 123.128906 "/>
<path style=" stroke:none;fill-rule:nonzero;fill:rgb(54.336548%,53.50647%,53.712463%);fill-opacity:1;" d="M 422.882812 128.117188 L 422.882812 128.003906 C 422.882812 119.40625 429.53125 112.179688 438.644531 112.179688 C 444.320312 112.179688 447.878906 114.300781 450.742188 117.398438 L 446.386719 122.039062 C 444.265625 119.804688 442.027344 118.257812 438.589844 118.257812 C 433.546875 118.257812 429.820312 122.613281 429.820312 127.886719 L 429.820312 128.003906 C 429.820312 133.394531 433.546875 137.691406 438.878906 137.691406 C 442.144531 137.691406 444.550781 136.199219 446.730469 133.964844 L 450.914062 138.09375 C 447.933594 141.417969 444.4375 143.769531 438.53125 143.769531 C 429.53125 143.769531 422.882812 136.71875 422.882812 128.117188 Z M 408.835938 112.808594 L 415.773438 112.808594 L 415.773438 143.082031 L 408.835938 143.082031 Z M 408.550781 101.574219 L 416.003906 101.574219 L 416.003906 108.164062 L 408.550781 108.164062 Z M 393.476562 126.453125 L 393.476562 126.339844 C 393.476562 121.410156 389.40625 118.027344 384.589844 118.027344 C 379.773438 118.027344 375.988281 121.355469 375.988281 126.339844 L 375.988281 126.453125 C 375.988281 131.386719 379.832031 134.769531 384.589844 134.769531 C 389.40625 134.769531 393.476562 131.386719 393.476562 126.453125 Z M 370.488281 148.757812 L 373.066406 143.539062 C 376.332031 145.542969 379.714844 146.75 383.84375 146.75 C 390.035156 146.75 393.417969 143.539062 393.417969 137.460938 L 393.417969 135.113281 C 390.898438 138.378906 387.742188 140.671875 382.753906 140.671875 C 375.648438 140.671875 368.996094 135.398438 368.996094 126.511719 L 368.996094 126.398438 C 368.996094 117.453125 375.703125 112.179688 382.753906 112.179688 C 387.859375 112.179688 391.007812 114.53125 393.359375 117.339844 L 393.359375 112.808594 L 400.296875 112.808594 L 400.296875 136.886719 C 400.296875 141.988281 398.980469 145.777344 396.457031 148.296875 C 393.703125 151.050781 389.460938 152.367188 384.015625 152.367188 C 379.027344 152.367188 374.386719 151.105469 370.488281 148.757812 Z M 357.597656 128.117188 L 357.597656 128.003906 C 357.597656 122.671875 353.753906 118.257812 348.308594 118.257812 C 342.746094 118.257812 339.195312 122.613281 339.195312 127.886719 L 339.195312 128.003906 C 339.195312 133.277344 343.035156 137.691406 348.421875 137.691406 C 354.039062 137.691406 357.597656 133.332031 357.597656 128.117188 Z M 332.257812 128.117188 L 332.257812 128.003906 C 332.257812 119.347656 339.136719 112.179688 348.421875 112.179688 C 357.710938 112.179688 364.53125 119.230469 364.53125 127.886719 L 364.53125 128.003906 C 364.53125 136.601562 357.65625 143.769531 348.308594 143.769531 C 339.078125 143.769531 332.257812 136.71875 332.257812 128.117188 Z M 301.925781 102.949219 L 308.980469 102.949219 L 308.980469 136.660156 L 330.074219 136.660156 L 330.074219 143.082031 L 301.925781 143.082031 L 301.925781 102.949219 "/>
<path style=" stroke:none;fill-rule:nonzero;fill:rgb(54.336548%,53.50647%,53.712463%);fill-opacity:1;" d="M 459.238281 112.113281 C 459.855469 112.113281 460.199219 111.792969 460.199219 111.339844 C 460.199219 110.828125 459.855469 110.566406 459.238281 110.566406 L 458.09375 110.566406 L 458.09375 112.113281 Z M 457.1875 109.765625 L 459.320312 109.765625 C 460.359375 109.765625 461.132812 110.273438 461.132812 111.257812 C 461.132812 112.03125 460.679688 112.511719 460.035156 112.699219 L 461.296875 114.484375 L 460.199219 114.484375 L 459.078125 112.859375 L 458.09375 112.859375 L 458.09375 114.484375 L 457.1875 114.484375 Z M 463.105469 112.21875 L 463.105469 112.191406 C 463.105469 109.921875 461.347656 108.058594 459.003906 108.058594 C 456.683594 108.058594 454.890625 109.953125 454.890625 112.21875 L 454.890625 112.246094 C 454.890625 114.515625 456.652344 116.375 459.003906 116.375 C 461.324219 116.375 463.105469 114.484375 463.105469 112.21875 Z M 454.363281 112.246094 L 454.363281 112.21875 C 454.363281 109.6875 456.414062 107.554688 459.003906 107.554688 C 461.617188 107.554688 463.640625 109.65625 463.640625 112.191406 L 463.640625 112.21875 C 463.640625 114.75 461.585938 116.886719 459.003906 116.886719 C 456.386719 116.886719 454.363281 114.78125 454.363281 112.246094 "/>
</g>
</svg>

<?xml version="1.0" encoding="UTF-8" standalone="no"?>
<svg
   xmlns:dc="http://purl.org/dc/elements/1.1/"
   xmlns:cc="http://creativecommons.org/ns#"
   xmlns:rdf="http://www.w3.org/1999/02/22-rdf-syntax-ns#"
   xmlns:svg="http://www.w3.org/2000/svg"
   xmlns="http://www.w3.org/2000/svg"
   xmlns:sodipodi="http://sodipodi.sourceforge.net/DTD/sodipodi-0.dtd"
   xmlns:inkscape="http://www.inkscape.org/namespaces/inkscape"
   width="423.52344pt"
   height="120.37891pt"
   viewBox="0 0 423.52344 120.3789"
   version="1.1"
   id="svg891"
   sodipodi:docname="cl.svg"
   inkscape:version="0.92.4 (5da689c313, 2019-01-14)">
  <metadata
     id="metadata897">
    <rdf:RDF>
      <cc:Work
         rdf:about="">
        <dc:format>image/svg+xml</dc:format>
        <dc:type
           rdf:resource="http://purl.org/dc/dcmitype/StillImage" />
        <dc:title></dc:title>
      </cc:Work>
    </rdf:RDF>
  </metadata>
  <defs
     id="defs895" />
  <sodipodi:namedview
     pagecolor="#ffffff"
     bordercolor="#666666"
     borderopacity="1"
     objecttolerance="10"
     gridtolerance="10"
     guidetolerance="10"
     inkscape:pageopacity="0"
     inkscape:pageshadow="2"
     inkscape:window-width="2560"
     inkscape:window-height="1080"
     id="namedview893"
     showgrid="false"
     fit-margin-top="0"
     fit-margin-left="0"
     fit-margin-right="0"
     fit-margin-bottom="0"
     inkscape:zoom="1.5434393"
     inkscape:cx="273.86375"
     inkscape:cy="80.24667"
     inkscape:window-x="0"
     inkscape:window-y="0"
     inkscape:window-maximized="0"
     inkscape:current-layer="svg891" />
  <g
     id="surface1"
     transform="translate(-40.117188,-40.121094)">
    <path
       style="fill:#eb1923;fill-opacity:1;fill-rule:nonzero;stroke:none"
       d="M 92.242188,40.121094 40.121094,70.21875 92.242188,100.31641 144.36719,70.21875 92.242188,40.121094"
       id="path876"
       inkscape:connector-curvature="0" />
    <path
       style="fill:#4c4a4a;fill-opacity:1;fill-rule:nonzero;stroke:none"
       d="M 40.117188,130.41016 92.246094,160.5 l -0.0039,-60.18359 z m 0,0"
       id="path878"
       inkscape:connector-curvature="0" />
    <path
       style="fill:#8a8787;fill-opacity:1;fill-rule:nonzero;stroke:none"
       d="M 92.242188,100.31641 92.246094,160.5 144.36719,130.41016 92.242188,100.31641"
       id="path880"
       inkscape:connector-curvature="0" />
    <path
       style="fill:#8a8787;fill-opacity:1;fill-rule:nonzero;stroke:none"
       d="m 92.242188,100.31641 -52.121094,-30.09766 -0.0039,60.19141 52.125,-30.09375"
       id="path882"
       inkscape:connector-curvature="0" />
    <path
       style="fill:#eb1923;fill-opacity:1;fill-rule:nonzero;stroke:none"
       d="m 287.25391,125.82422 c -0.45704,-4.46875 -3.09375,-7.96875 -7.6836,-7.96875 -4.24219,0 -7.22265,3.26562 -7.85156,7.96875 z m -22.41407,2.23828 v -0.11719 c 0,-8.65625 6.13282,-15.76562 14.78907,-15.76562 9.63281,0 14.5039,7.5664 14.5039,16.28125 0,0.63281 -0.0586,1.26172 -0.11328,1.94922 h -22.24219 c 0.7461,4.92968 4.24219,7.68359 8.71094,7.68359 3.38281,0 5.79297,-1.26563 8.19922,-3.61328 l 4.07031,3.61328 c -2.86719,3.4375 -6.82422,5.67578 -12.38281,5.67578 -8.77344,0 -15.53516,-6.36328 -15.53516,-15.70703 z m -22.41406,-15.25391 h 6.9375 v 6.82422 c 1.89063,-4.52734 5.38672,-7.625 10.71875,-7.39453 v 7.33594 h -0.39844 c -6.07812,0 -10.32031,3.95703 -10.32031,11.98437 v 11.52344 h -6.9375 z m -13.41406,15.3086 v -0.11328 c 0,-5.33203 -3.83985,-9.7461 -9.28516,-9.7461 -5.5625,0 -9.11328,4.35547 -9.11328,9.62891 v 0.11719 c 0,5.27343 3.83594,9.6875 9.22656,9.6875 5.61719,0 9.17188,-4.35938 9.17188,-9.57422 z m -25.33594,0 v -0.11328 c 0,-8.65625 6.87891,-15.82422 16.16406,-15.82422 9.28907,0 16.10938,7.05078 16.10938,15.70703 v 0.11719 c 0,8.59765 -6.87891,15.76562 -16.22266,15.76562 -9.23047,0 -16.05078,-7.05078 -16.05078,-15.65234 z m -40.76172,-4.98828 v -0.11328 c 0,-11.41016 8.54297,-20.75391 20.69922,-20.75391 7.39453,0 11.86328,2.58203 15.70703,6.25 l -4.53125,5.21875 c -3.20703,-2.98438 -6.64844,-4.98828 -11.23437,-4.98828 -7.625,0 -13.24219,6.30469 -13.24219,14.16015 v 0.11329 c 0,7.85156 5.55859,14.21484 13.24219,14.21484 4.92968,0 8.08203,-1.94922 11.51953,-5.15625 l 4.53125,4.58594 c -4.1836,4.35546 -8.76953,7.10937 -16.28125,7.10937 -11.69531,0 -20.41016,-9.11719 -20.41016,-20.64062"
       id="path884"
       inkscape:connector-curvature="0" />
    <path
       style="fill:#8a8787;fill-opacity:1;fill-rule:nonzero;stroke:none"
       d="m 422.88281,128.11719 v -0.11328 c 0,-8.59766 6.64844,-15.82422 15.76172,-15.82422 5.67578,0 9.23438,2.12109 12.09766,5.21875 l -4.35547,4.64062 c -2.1211,-2.23437 -4.35938,-3.78125 -7.79688,-3.78125 -5.04297,0 -8.76953,4.35547 -8.76953,9.62891 v 0.11719 c 0,5.39062 3.72656,9.6875 9.0586,9.6875 3.26562,0 5.67187,-1.49219 7.85156,-3.72657 l 4.18359,4.12891 c -2.98047,3.32422 -6.47656,5.67578 -12.38281,5.67578 -9,0 -15.64844,-7.05078 -15.64844,-15.65234 z m -14.04687,-15.3086 h 6.9375 v 30.27344 h -6.9375 z m -0.28516,-11.23437 h 7.45313 v 6.58984 h -7.45313 z m -15.07422,24.87891 v -0.11329 c 0,-4.92968 -4.07031,-8.3125 -8.88672,-8.3125 -4.8164,0 -8.60156,3.32813 -8.60156,8.3125 v 0.11329 c 0,4.93359 3.84375,8.3164 8.60156,8.3164 4.81641,0 8.88672,-3.38281 8.88672,-8.3164 z m -22.98828,22.30468 2.57813,-5.21875 c 3.26562,2.00391 6.64843,3.21094 10.77734,3.21094 6.19141,0 9.57422,-3.21094 9.57422,-9.28906 v -2.34766 c -2.51953,3.26563 -5.67578,5.55859 -10.66406,5.55859 -7.10547,0 -13.75782,-5.27343 -13.75782,-14.16015 v -0.11328 c 0,-8.94531 6.70703,-14.21875 13.75782,-14.21875 5.10546,0 8.2539,2.35156 10.60546,5.16015 v -4.53125 h 6.9375 v 24.07813 c 0,5.10156 -1.3164,8.89062 -3.83984,11.41015 -2.75391,2.75391 -6.99609,4.07032 -12.44141,4.07032 -4.98828,0 -9.6289,-1.26172 -13.52734,-3.60938 z m -12.89062,-20.64062 v -0.11328 c 0,-5.33203 -3.84375,-9.7461 -9.28907,-9.7461 -5.5625,0 -9.11328,4.35547 -9.11328,9.62891 v 0.11719 c 0,5.27343 3.83985,9.6875 9.22656,9.6875 5.61719,0 9.17579,-4.35938 9.17579,-9.57422 z m -25.33985,0 v -0.11328 c 0,-8.65625 6.87891,-15.82422 16.16406,-15.82422 9.28907,0 16.10938,7.05078 16.10938,15.70703 v 0.11719 c 0,8.59765 -6.875,15.76562 -16.22266,15.76562 -9.23047,0 -16.05078,-7.05078 -16.05078,-15.65234 z m -30.33203,-25.16797 h 7.05469 v 33.71094 h 21.09375 v 6.42187 h -28.14844 v -40.13281"
       id="path886"
       inkscape:connector-curvature="0" />
    <path
       style="fill:#8a8787;fill-opacity:1;fill-rule:nonzero;stroke:none"
       d="m 459.23828,112.11328 c 0.61719,0 0.96094,-0.32031 0.96094,-0.77344 0,-0.51171 -0.34375,-0.77343 -0.96094,-0.77343 h -1.14453 v 1.54687 z m -2.05078,-2.34765 h 2.13281 c 1.03906,0 1.8125,0.50781 1.8125,1.49218 0,0.77344 -0.45312,1.25391 -1.09765,1.44141 l 1.26171,1.78516 h -1.09765 l -1.1211,-1.625 h -0.98437 v 1.625 h -0.90625 z m 5.91797,2.45312 v -0.0273 c 0,-2.26953 -1.75781,-4.13282 -4.10156,-4.13282 -2.32032,0 -4.11329,1.89454 -4.11329,4.16016 v 0.0273 c 0,2.26954 1.76172,4.12891 4.11329,4.12891 2.32031,0 4.10156,-1.89062 4.10156,-4.15625 z m -8.74219,0.0273 v -0.0273 c 0,-2.53125 2.05078,-4.66406 4.64063,-4.66406 2.61328,0 4.63671,2.10156 4.63671,4.63672 v 0.0273 c 0,2.53125 -2.05468,4.66797 -4.63671,4.66797 -2.61719,0 -4.64063,-2.10547 -4.64063,-4.64063"
       id="path888"
       inkscape:connector-curvature="0" />
  </g>
</svg>
